img/icons/gr-people.svg

<svg width="28" height="17" viewBox="0 0 28 17" fill="none" xmlns="http://www.w3.org/2000/svg">
<path d="M14 2.84371C11.8013 2.84371 10.0127 4.73618 10.0127 7.06243C10.0127 9.38868 11.8014 11.2811 14 11.2811C16.1986 11.2811 17.9873 9.38862 17.9873 7.06243C17.9873 4.73623 16.1986 2.84371 14 2.84371ZM14 9.40621C12.7784 9.40621 11.7848 8.35464 11.7848 7.06249C11.7848 5.76998 12.7784 4.71876 14 4.71876C15.2216 4.71876 16.2151 5.76998 16.2151 7.06249C16.2151 8.35499 15.2216 9.40621 14 9.40621Z" fill="#222126"/>
<path d="M14 9.37497C10.7265 9.37497 8.06327 12.1928 8.06327 15.6562V16.0625C8.06327 16.5803 8.45992 17 8.94937 17C9.43877 17 9.83547 16.5803 9.83547 16.0625V15.6562C9.83547 13.2265 11.7036 11.25 14 11.25C16.2965 11.25 18.1646 13.2269 18.1646 15.6562V16.0625C18.1646 16.5803 18.5612 17 19.0507 17C19.5401 17 19.9368 16.5803 19.9368 16.0625V15.6562C19.9367 12.1928 17.2735 9.37497 14 9.37497Z" fill="#222126"/>
<path d="M22.0632 0C19.8646 0 18.0759 1.89253 18.0759 4.21872C18.0759 6.54492 19.8646 8.43744 22.0632 8.43744C24.2622 8.43744 26.0506 6.54492 26.0506 4.21872C26.0506 1.89253 24.2619 0 22.0632 0ZM22.0632 6.56245C20.8416 6.56245 19.8481 5.51123 19.8481 4.21872C19.8481 2.92622 20.8416 1.87499 22.0632 1.87499C23.2849 1.87499 24.2784 2.92622 24.2784 4.21872C24.2784 5.51123 23.2849 6.56245 22.0632 6.56245Z" fill="#222126"/>
<path d="M22.0632 6.5312C19.348 6.5312 16.9787 8.47841 16.3023 11.2668C16.1806 11.7681 16.4662 12.279 16.94 12.4078C17.414 12.5378 17.8966 12.2346 18.0183 11.7331C18.4939 9.77404 20.1573 8.40626 22.0633 8.40626C24.3597 8.40626 26.2279 10.3831 26.2279 12.8125V13.2188C26.2279 13.7366 26.6245 14.1563 27.114 14.1563C27.6034 14.1563 28.0001 13.7366 28 13.2188V12.8124C27.9999 9.34905 25.3367 6.5312 22.0632 6.5312Z" fill="#222126"/>
<path d="M5.9367 0C3.73805 0 1.94939 1.89253 1.94939 4.21872C1.94939 6.54492 3.7381 8.43744 5.9367 8.43744C8.13535 8.43744 9.92401 6.54492 9.92401 4.21872C9.92401 1.89253 8.13535 0 5.9367 0ZM5.9367 6.56245C4.71509 6.56245 3.72153 5.51123 3.72153 4.21872C3.72153 2.92622 4.71509 1.87499 5.9367 1.87499C7.15831 1.87499 8.15187 2.92622 8.15187 4.21872C8.15187 5.51123 7.15831 6.56245 5.9367 6.56245Z" fill="#222126"/>
<path d="M11.6684 11.2356C10.9962 8.46562 8.63924 6.53126 5.9367 6.53126C2.66322 6.5312 0 9.34905 0 12.8124V13.2187C0 13.7365 0.396648 14.1562 0.8861 14.1562C1.3755 14.1562 1.7722 13.7366 1.7722 13.2187V12.8124C1.7722 10.3831 3.64032 8.4062 5.93675 8.4062C7.82998 8.4062 9.48104 9.76119 9.95185 11.7018C10.0735 12.2031 10.5547 12.5043 11.0305 12.3768C11.5045 12.2481 11.7901 11.7369 11.6684 11.2356Z" fill="#222126"/>
</svg>

<svg width="28" height="17" fill="none" xmlns="http://www.w3.org/2000/svg"><path d="M14 2.844c-2.199 0-3.987 1.892-3.987 4.218 0 2.327 1.788 4.22 3.987 4.22s3.987-1.893 3.987-4.22c0-2.326-1.788-4.218-3.987-4.218Zm0 6.562c-1.222 0-2.215-1.051-2.215-2.344 0-1.292.993-2.343 2.215-2.343s2.215 1.051 2.215 2.343c0 1.293-.993 2.344-2.215 2.344Z" fill="#222126"/><path d="M14 9.375c-3.274 0-5.937 2.818-5.937 6.281v.406c0 .518.397.938.886.938.49 0 .886-.42.886-.938v-.406c0-2.43 1.869-4.406 4.165-4.406 2.297 0 4.165 1.977 4.165 4.406v.406c0 .518.396.938.886.938s.886-.42.886-.938v-.406c0-3.463-2.664-6.281-5.937-6.281ZM22.063 0c-2.198 0-3.987 1.893-3.987 4.219 0 2.326 1.789 4.218 3.987 4.218 2.2 0 3.988-1.892 3.988-4.218S24.26 0 22.063 0Zm0 6.562c-1.221 0-2.215-1.05-2.215-2.343s.994-2.344 2.215-2.344c1.222 0 2.215 1.051 2.215 2.344 0 1.292-.993 2.343-2.215 2.343Z" fill="#222126"/><path d="M22.063 6.531c-2.715 0-5.084 1.947-5.76 4.736-.122.501.163 1.012.637 1.14.474.13.957-.172 1.078-.674.476-1.959 2.14-3.327 4.045-3.327 2.297 0 4.165 1.977 4.165 4.406v.407c0 .518.396.937.886.937s.886-.42.886-.937v-.407c0-3.463-2.663-6.28-5.937-6.28ZM5.937 0C3.738 0 1.949 1.893 1.949 4.219c0 2.326 1.79 4.218 3.988 4.218S9.924 6.545 9.924 4.22 8.135 0 5.937 0Zm0 6.562c-1.222 0-2.215-1.05-2.215-2.343s.993-2.344 2.215-2.344c1.221 0 2.215 1.051 2.215 2.344 0 1.292-.994 2.343-2.215 2.343Z" fill="#222126"/><path d="M11.668 11.236C10.996 8.466 8.64 6.53 5.937 6.53 2.663 6.531 0 9.35 0 12.812v.407c0 .518.397.937.886.937.49 0 .886-.42.886-.937v-.407c0-2.429 1.868-4.406 4.165-4.406 1.893 0 3.544 1.355 4.015 3.296.121.501.603.802 1.079.675.473-.129.76-.64.637-1.141Z" fill="#222126"/></svg>
